src/assets/sonner/athlete-gold.svg

<svg width="100" height="130" viewBox="0 0 100 130" fill="none" xmlns="http://www.w3.org/2000/svg">
<g id="athlete-gold">
<g id="local-warrior">
<g id="Subtract">
<path d="M16 7L50 16L84 7L82.8058 10.9808L50 19L17.1942 10.9808L16 7Z" fill="#E1CFB2"/>
<path d="M10.4669 105.198L10 108L45 125V120L50 122L55 120V125L90 108L89.5331 105.198L50 122L10.4669 105.198Z" fill="#E1CFB2"/>
</g>
<g id="Union">
<path d="M40.8 46H57.6L70 80.4L57.6 86L51.2 58.8L47.3663 69.6959L51.7011 67.9155L53.6725 76.2942L30.0562 85.9769L30 86L39.8366 57.8953L48.2 51.8L41.4057 53.4122L43.2498 48.1435L40.8 46Z" fill="#E1CFB2"/>
<path d="M68.09 70.383L65.2018 62.3706L70 60.3999L68.09 70.383Z" fill="#E1CFB2"/>
</g>
<path id="16 Ouline (Stroke)" fill-rule="evenodd" clip-rule="evenodd" d="M8.38344 20.6574C7.27356 18.796 6 18 6 18L10 19L5 8L50 18L95 8L90 19L94 18C94 18 92.7264 18.796 91.6166 20.6574C90.7595 22.0949 90 24.1677 90 27V105L50 122L10 105V27C10 24.1677 9.24053 22.0949 8.38344 20.6574ZM10.9313 21.2944C11.5577 22.8154 12 24.7054 12 27V103.677L50 119.827L88 103.677V27C88 24.7054 88.4423 22.8154 89.0687 21.2944L86.4642 21.9455L91.5203 10.822L50 20.0488L8.47967 10.822L13.5358 21.9455L10.9313 21.2944Z" fill="#E1CFB2"/>
</g>
</g>
</svg>

<svg xmlns="http://www.w3.org/2000/svg" width="100" height="130" fill="#e1cfb2" xmlns:v="https://vecta.io/nano"><path d="M16 7l34 9 34-9-1.194 3.981L50 19l-32.806-8.019L16 7zm-5.533 98.198L10 108l35 17v-5l5 2 5-2v5l35-17-.467-2.802L50 122l-39.533-16.802zM40.8 46h16.8L70 80.4 57.6 86l-6.4-27.2-3.834 10.896 4.335-1.78 1.971 8.379-23.616 9.683L30 86l9.837-28.105L48.2 51.8l-6.794 1.612 1.844-5.269L40.8 46zm27.29 24.383l-2.888-8.012L70 60.4l-1.91 9.983z"/><path fill-rule="evenodd" d="M8.383 20.657C7.274 18.796 6 18 6 18l4 1L5 8l45 10L95 8l-5 11 4-1s-1.274.796-2.383 2.657C90.76 22.095 90 24.168 90 27v78l-40 17-40-17V27c0-2.832-.759-4.905-1.617-6.343zm2.548.637C11.558 22.815 12 24.705 12 27v76.677l38 16.15 38-16.15V27c0-2.295.442-4.185 1.069-5.706l-2.605.651 5.056-11.123L50 20.049 8.48 10.822l5.056 11.124-2.604-.651z"/></svg>
